resources/icons/hicolor/scalable/apps/hourglass.svg

<?xml version="1.0" encoding="UTF-8" standalone="no"?>
<!-- Created with Vectornator (http://vectornator.io/) -->

<svg
   height="24"
   stroke-miterlimit="10"
   style="fill-rule:nonzero;clip-rule:evenodd;stroke-linecap:round;stroke-linejoin:round;"
   version="1.1"
   viewBox="0 0 128 128"
   width="24"
   xml:space="preserve"
   id="svg5"
   sodipodi:docname="hourglass.svg"
   inkscape:version="1.4.2 (ebf0e940d0, 2025-05-08)"
   xmlns:inkscape="http://www.inkscape.org/namespaces/inkscape"
   xmlns:sodipodi="http://sodipodi.sourceforge.net/DTD/sodipodi-0.dtd"
   xmlns="http://www.w3.org/2000/svg"
   xmlns:svg="http://www.w3.org/2000/svg"><sodipodi:namedview
   id="namedview5"
   pagecolor="#505050"
   bordercolor="#eeeeee"
   borderopacity="1"
   inkscape:showpageshadow="0"
   inkscape:pageopacity="0"
   inkscape:pagecheckerboard="0"
   inkscape:deskcolor="#505050"
   inkscape:zoom="20.375"
   inkscape:cx="11.97546"
   inkscape:cy="12"
   inkscape:window-width="1360"
   inkscape:window-height="689"
   inkscape:window-x="20"
   inkscape:window-y="20"
   inkscape:window-maximized="0"
   inkscape:current-layer="svg5" />
<defs
   id="defs1" />
<g
   id="Layer-1"
   transform="matrix(2.254172,0,0,2.254172,-80.762797,-79.99623)">
<g
   opacity="1"
   id="g5">
<path
   d="M 88.0238,92.3918 H 39.9762 v -2.184 c 0,-1.2034 0.9806,-2.184 2.184,-2.184 h 43.6796 c 1.2034,0 2.184,0.9806 2.184,2.184 z"
   fill="currentColor"
   fill-rule="nonzero"
   opacity="1"
   stroke="none"
   id="path1" />
<path
   d="M 83.6558,90.2078 H 44.3442 v -4.368 c 0,-1.2033 0.9806,-2.184 2.1839,-2.184 h 34.9438 c 1.2033,0 2.1839,0.9807 2.1839,2.184 z M 39.9762,35.6082 h 48.0476 v 2.184 c 0,1.2034 -0.9806,2.184 -2.184,2.184 H 42.1602 c -1.2034,0 -2.184,-0.9806 -2.184,-2.184 z"
   fill="currentColor"
   fill-rule="nonzero"
   opacity="1"
   stroke="none"
   id="path2" />
<path
   d="m 44.3442,37.7922 h 39.3116 v 4.368 c 0,1.2033 -0.9806,2.184 -2.1839,2.184 H 46.5281 c -1.2033,0 -2.1839,-0.9807 -2.1839,-2.184 z"
   fill="currentColor"
   fill-rule="nonzero"
   opacity="1"
   stroke="none"
   id="path3" />
<path
   d="m 54.5586,42.0706 c 2.0246,0 5.0363,0.107 9.4414,0.107 10.8937,0 13.2546,0.0131 13.2546,1.2711 0,16.2991 -9.7886,14.0256 -9.7886,20.5513 0,6.5257 9.7908,4.4182 9.7908,20.5556 0,1.1903 -0.6006,1.4611 -2.9004,1.4611 -1.9328,0 -5.0581,-0.1922 -10.0332,-0.1922 -4.309,0 -7.3316,0.0961 -9.4151,0.0961 -3.1865,0 -4.1671,-0.2271 -4.1671,-1.365 0,-16.0544 9.6576,-14.032 9.6576,-20.5556 0,-6.5236 -9.6554,-4.3374 -9.6554,-20.5535 0,-1.1466 0.8365,-1.3759 3.8154,-1.3759 m 0,-3.5337 c -2.1992,0 -7.3491,0 -7.3491,4.9096 0,11.5708 4.6235,15.4495 7.6855,18.0157 1.8127,1.5222 1.9699,1.7996 1.9699,2.5378 0,0.795 -0.2446,1.1138 -2.0071,2.612 -3.0488,2.5924 -7.6504,6.5061 -7.6504,17.9436 0,4.9009 5.2022,4.9009 7.7007,4.9009 0.8692,0 1.9,-0.0175 3.1165,-0.0371 1.7035,-0.0284 3.7783,-0.0612 6.2986,-0.0612 3.0096,0 5.2962,0.0699 7.1329,0.1289 1.1772,0.0371 2.1294,0.0633 2.9003,0.0633 4.2697,0 6.4341,-1.6817 6.4341,-4.9948 0,-11.5183 -4.6803,-15.4189 -7.775,-17.996 -1.8564,-1.544 -2.018,-1.8236 -2.018,-2.5596 0,-0.7163 0.1594,-0.9893 1.9809,-2.4854 3.1099,-2.553 7.8077,-6.4143 7.8077,-18.0659 0,-1.8957 -1.0025,-4.2369 -5.7854,-4.63 C 72.9631,38.6505 69.8269,38.644 64,38.644 c -2.6011,0 -4.713,-0.0393 -6.4165,-0.0677 -1.1903,-0.0219 -2.1906,-0.0394 -3.0249,-0.0394 z"
   fill="currentColor"
   fill-rule="nonzero"
   opacity="1"
   stroke="none"
   id="path4" />
<path
   d="m 64.784,67.632 c 0,-7.882 5.8007,-8.902 5.8007,-12.3679 H 57.5835 c 0,2.9549 5.698,4.2194 5.698,12.3679 0,5.2109 -7.9344,7.2879 -7.9344,16.0238 H 72.6486 C 72.6508,74.9876 64.784,72.76 64.784,67.632 Z"
   fill="#606060"
   fill-rule="nonzero"
   opacity="1"
   stroke="none"
   id="path5" />
</g>
</g>
</svg>

<?xml version="1.0" encoding="UTF-8" standalone="no"?>
<!DOCTYPE svg PUBLIC "-//W3C//DTD SVG 1.1//EN" "http://www.w3.org/Graphics/SVG/1.1/DTD/svg11.dtd">
<!-- Created with Vectornator (http://vectornator.io/) -->
<svg height="100%" stroke-miterlimit="10" style="fill-rule:nonzero;clip-rule:evenodd;stroke-linecap:round;stroke-linejoin:round;" version="1.1" viewBox="0 0 128 128" width="100%" xml:space="preserve" xmlns="http://www.w3.org/2000/svg" xmlns:xlink="http://www.w3.org/1999/xlink">
<defs/>
<g id="Layer-1">
<g opacity="1">
<path d="M88.0238 92.3918L39.9762 92.3918L39.9762 90.2078C39.9762 89.0044 40.9568 88.0238 42.1602 88.0238L85.8398 88.0238C87.0432 88.0238 88.0238 89.0044 88.0238 90.2078L88.0238 92.3918Z" fill="currentColor" fill-rule="nonzero" opacity="1" stroke="none"/>
<path d="M83.6558 90.2078L44.3442 90.2078L44.3442 85.8398C44.3442 84.6365 45.3248 83.6558 46.5281 83.6558L81.4719 83.6558C82.6752 83.6558 83.6558 84.6365 83.6558 85.8398L83.6558 90.2078ZM39.9762 35.6082L88.0238 35.6082L88.0238 37.7922C88.0238 38.9956 87.0432 39.9762 85.8398 39.9762L42.1602 39.9762C40.9568 39.9762 39.9762 38.9956 39.9762 37.7922L39.9762 35.6082Z" fill="currentColor" fill-rule="nonzero" opacity="1" stroke="none"/>
<path d="M44.3442 37.7922L83.6558 37.7922L83.6558 42.1602C83.6558 43.3635 82.6752 44.3442 81.4719 44.3442L46.5281 44.3442C45.3248 44.3442 44.3442 43.3635 44.3442 42.1602L44.3442 37.7922Z" fill="currentColor" fill-rule="nonzero" opacity="1" stroke="none"/>
<path d="M54.5586 42.0706C56.5832 42.0706 59.5949 42.1776 64 42.1776C74.8937 42.1776 77.2546 42.1907 77.2546 43.4487C77.2546 59.7478 67.466 57.4743 67.466 64C67.466 70.5257 77.2568 68.4182 77.2568 84.5556C77.2568 85.7459 76.6562 86.0167 74.3564 86.0167C72.4236 86.0167 69.2983 85.8245 64.3232 85.8245C60.0142 85.8245 56.9916 85.9206 54.9081 85.9206C51.7216 85.9206 50.741 85.6935 50.741 84.5556C50.741 68.5012 60.3986 70.5236 60.3986 64C60.3986 57.4764 50.7432 59.6626 50.7432 43.4465C50.7432 42.2999 51.5797 42.0706 54.5586 42.0706M54.5586 38.5369C52.3594 38.5369 47.2095 38.5369 47.2095 43.4465C47.2095 55.0173 51.833 58.896 54.895 61.4622C56.7077 62.9844 56.8649 63.2618 56.8649 64C56.8649 64.795 56.6203 65.1138 54.8578 66.612C51.809 69.2044 47.2074 73.1181 47.2074 84.5556C47.2074 89.4565 52.4096 89.4565 54.9081 89.4565C55.7773 89.4565 56.8081 89.439 58.0246 89.4194C59.7281 89.391 61.8029 89.3582 64.3232 89.3582C67.3328 89.3582 69.6194 89.4281 71.4561 89.4871C72.6333 89.5242 73.5855 89.5504 74.3564 89.5504C78.6261 89.5504 80.7905 87.8687 80.7905 84.5556C80.7905 73.0373 76.1102 69.1367 73.0155 66.5596C71.1591 65.0156 70.9975 64.736 70.9975 64C70.9975 63.2837 71.1569 63.0107 72.9784 61.5146C76.0883 58.9616 80.7861 55.1003 80.7861 43.4487C80.7861 41.553 79.7836 39.2118 75.0007 38.8187C72.9631 38.6505 69.8269 38.644 64 38.644C61.3989 38.644 59.287 38.6047 57.5835 38.5763C56.3932 38.5544 55.3929 38.5369 54.5586 38.5369L54.5586 38.5369Z" fill="currentColor" fill-rule="nonzero" opacity="1" stroke="none"/>
<path d="M64.784 67.632C64.784 59.75 70.5847 58.73 70.5847 55.2641L57.5835 55.2641C57.5835 58.219 63.2815 59.4835 63.2815 67.632C63.2815 72.8429 55.3471 74.9199 55.3471 83.6558L72.6486 83.6558C72.6508 74.9876 64.784 72.76 64.784 67.632Z" fill="#606060" fill-rule="nonzero" opacity="1" stroke="none"/>
</g>
</g>
</svg>
